X:1
T:Title
%%score { ( 1 4 5 ) | ( 2 3 ) }
L:1/8
M:3/4
K:F
V:1 treble nm="Grand Piano"
V:4 treble 
V:5 treble 
V:2 bass 
V:3 bass 
V:1
 z2 z2[Q:1/4=94] A>G | [A,F]3 C FG | [A,F]E E2 B>B | A3 [A,F] (3FEF |[M:2/4] G4 |[M:1/4] c>B | %6
[M:3/4] A3 A [^CA]A | A>G F2 [_EF][EF] | [DF]3 F BB |[M:2/4] [^CB]>A A2 |[M:1/4] FF | %11
[M:3/4] [B,G]3 F [CA]>G |[M:2/4] [A,F]4 |[M:1/4] C>F |[M:3/4] [FA]4 z2 | c>=B c2 G>A | [GB]4 z2 | %17
 A>d c2 c>B | C>C z A [^Fd]>[Ac] | %19
 [GB]4 z2[Q:1/4=91][Q:1/4=88][Q:1/4=85][Q:1/4=82][Q:1/4=79][Q:1/4=76][Q:1/4=73] | A3 F E[EG] | %21
[M:2/4] F4 |] %22
V:2
 z2 z2 C>B, | z2 z A, A,A, | z G, G,2 D>D | [C,F,C]4 (3:2:2=B,2 B, |[M:2/4] C2 z2 |[M:1/4] A,>G, | %6
[M:3/4] F,3 C z ^C | D2 D2 [C,A,]2 | z2 z D DD |[M:2/4] z z/ C/ C2 |[M:1/4] A,A, | %11
[M:3/4] B,,2 z =B, z z/ _B,/ |[M:2/4] [F,,C,]4 |[M:1/4] A,>C | %14
[M:3/4] F,>F, F,[F,A,][K:treble] [F,DF][F,B,F] | [F,F]->[F,_A,F] [F,=A,F]2 E>F | %16
 C,>C, C,[C,C] [C,C][C,C] | [F,F]->[F,B,F] [F,A,F]2 A>G | F,>F, z F [D,D]2 | %19
 [G,D]>G, G,2 [B,,B,][B,,B,] | [C,F,C]3 [C,A,C] [C,G,C][C,B,] |[M:2/4] [F,A,]4 |] %22
V:3
 x6 | [F,,F,]4 z2 | G,,4 z2 | z2 z .[G,,D,]3 |[M:2/4] [C,E,]4 |[M:1/4] x2 |[M:3/4] F,,4 [A,,E,]2 | %7
 [D,F,]4 z2 | [B,,B,]4 z2 |[M:2/4] [F,,F,]4 |[M:1/4] x2 |[M:3/4] z2 G,,2 C,2 |[M:2/4] x4 | %13
[M:1/4] x2 |[M:3/4] x4[K:treble] x2 | A,2 z2 z2 | x6 | C2 z2 z2 | z2 F,2 z2 | x6 | x6 | %21
[M:2/4] x4 |] %22
V:4
 x6 | x6 | x6 | x6 |[M:2/4] z2 B,2 |[M:1/4] x2 |[M:3/4] x6 | x6 | x6 |[M:2/4] x4 |[M:1/4] x2 | %11
[M:3/4] x6 |[M:2/4] x4 |[M:1/4] x2 |[M:3/4] C>C CF Bd | x6 | C>C C[ce] [Bd][GB] | x6 | [FA]4 z2 | %19
 z z/ D/ D2 [DF][^CG] | x6 |[M:2/4] x4 |] %22
V:5
 x6 | x6 | x6 | x6 |[M:2/4] x4 |[M:1/4] x2 |[M:3/4] x6 | x6 | x6 |[M:2/4] x4 |[M:1/4] x2 | %11
[M:3/4] x6 |[M:2/4] x4 |[M:1/4] x2 |[M:3/4] x6 | x6 | x6 | x6 | z2 C2 z2 | x6 | x6 |[M:2/4] x4 |] %22

